Papirus/64x64/apps/hashit.svg

<svg xmlns="http://www.w3.org/2000/svg" height="64" width="64" version="1.1" viewBox="0 0 64 64">
 <path style="opacity:.2" d="m32 5a28 28 0 0 0 -28 28 28 28 0 0 0 28 28 28 28 0 0 0 28 -28 28 28 0 0 0 -28 -28z"/>
 <path style="fill:#6ea23d" d="m32 4a28 28 0 0 0 -28 28 28 28 0 0 0 28 28 28 28 0 0 0 28 -28 28 28 0 0 0 -28 -28z"/>
 <path style="opacity:.2;fill:#ffffff" d="m32 4a28 28 0 0 0 -28 28 28 28 0 0 0 0.0214844 0.40625 28 28 0 0 1 27.978516 -27.40625 28 28 0 0 1 27.978516 27.578125 28 28 0 0 0 0.021484 -0.578125 28 28 0 0 0 -28 -28z"/>
 <path style="opacity:.2" d="m26 15-1.777344 8h-7.777344l-1.335937 6h7.779297l-1.777344 8h-7.779297l-1.332031 6h7.777344l-1.777344 8h6l1.777344-8h8l-1.777344 8h6l1.777344-8h7.824218l1.332032-6h-7.822266l1.777344-8h7.822266l1.289062-5.792969v-0.207031h-7.777344l1.777344-8h-6l-1.777344 8h-8l1.777344-8h-6zm2.888672 14h8l-1.777344 8h-8l1.777344-8z"/>
 <path style="fill:#ffffff" d="m26 14h6l-8 36h-6z"/>
 <path style="fill:#ffffff" d="m40 14h6l-8 36h-6z"/>
 <path style="fill:#ffffff" d="m16.445656 22-1.335937 6h35.601438l1.289062-5.792968v-0.207032zm-3.113281 14-1.332031 6h35.601437l1.332032-6z"/>
</svg>

<svg xmlns="http://www.w3.org/2000/svg" width="64" height="64" version="1.1" viewBox="0 0 64 64">
 <path style="opacity:0.2" d="M 32,5 A 28,28 0 0 0 4,33 28,28 0 0 0 32,61 28,28 0 0 0 60,33 28,28 0 0 0 32,5 Z"/>
 <path style="fill:#6ea23d" d="M 32,4 A 28,28 0 0 0 4,32 28,28 0 0 0 32,60 28,28 0 0 0 60,32 28,28 0 0 0 32,4 Z"/>
 <path style="opacity:0.2;fill:#ffffff" d="M 32 4 A 28 28 0 0 0 4 32 A 28 28 0 0 0 4.0214844 32.40625 A 28 28 0 0 1 32 5 A 28 28 0 0 1 59.978516 32.578125 A 28 28 0 0 0 60 32 A 28 28 0 0 0 32 4 z"/>
 <path style="opacity:0.2" d="m 26,15 -1.777344,8 h -5.777344 l -1.335937,6 h 5.781249 l -1.781248,8 H 15.332031 L 14,43 h 5.777344 L 18,51 h 6 l 1.777344,-8 h 8 L 32,51 h 6 l 1.777344,-8 h 5.824218 l 1.332032,-6 h -5.824218 l 1.781248,-8 h 5.820314 L 50,23.207032 V 23 H 44.222656 L 46,15 h -6 l -1.777344,8 h -8 L 32,15 Z m 2.890624,14 h 8 l -1.781248,8 h -8 z"/>
 <path style="fill:#ffffff" d="m 26,14 h 6 l -8,36 h -6 z"/>
 <path style="fill:#ffffff" d="m 40,14 h 6 l -8,36 h -6 z"/>
 <path style="fill:#ffffff" d="m 18.445312,22 -1.335937,6 H 48.710938 L 50,22.207032 V 22 Z M 15.332031,36 14,42 h 31.601562 l 1.332032,-6 z"/>
</svg>
